!!!!SEGMENT: pl-sa--288-a-vii-48--001-007_lechleitner-ferdinand-simon--litania-de-b-v-mariae-agnus-dei.krn
!!!cenid: 17xx:442
!!!COM: Lechleitner, Ferdinand Simon
!!!COM-rismID: pe30001903
!!!CDT: ~1700-~1800
!!!CNT:
!!!OPR: Litania de B.V. Mariae
!!!OTL: Agnus Dei
!!!OMV: 007
!!!PDT: 1741
!!!AGN: Sacred; Mass
!!!YEC: Copyright 2022 Narodowy Instytut Fryderyka Chopina (https://polishscores.org)
!!!YEM: License CC-BY-4.0 (https://creativecommons.org/licenses/by/4.0)
!!!SMS-siglum: PL-SA
!!!SMS-shelfmark: 288/A VII 48
!!!SMS-shelfwork: 001-007 M
!!!NIFC-rismSourceID: 1001039077
!!!NIFC-rismChildID: 1001039077
!!!NIFC-islandoraID: none
!!!URL-pdf-islandora:
!!!URL-scan: https://bc.bdsandomierz.pl/dlibra/publication/1784/edition/1752/content @EN{Scan in the Sandomierz Diocese Digital Library} @PL{Skany w portalu Cyfrowa Biblioteka Diecezjalna w Sandomierzu}
!!!IIIF:
!!!ONB-nifc: UWAGA: części Litanii: Kyrie, Sancta Maria, Virgo prudentissima, Speculum iustitiae, Salus infirmorum, Regina angelorum, Agnus Dei. Brak Agnus Dei w głosie Canto
!!!AIN: 1 alto 3 empty 1 tenor 1 viola 2 violn 1 vox
!!!key:
**kern	**fba	**kern	**dynam	**kern	**dynam	**kern	**text	**kern	**text	**kern	**text	**kern	**kern	**kern
*group3	*	*group3	*	*group3	*	*group2	*	*group2	*	*group2	*	*group2	*group1	*group1
*part9	*	*part8	*	*part7	*	*part6	*	*part5	*	*part4	*	*part3	*part2	*part1
*staff9	*	*staff8	*	*staff7	*	*staff6	*	*staff5	*	*staff4	*	*staff3	*staff2	*staff1
*Iviola	*	*Ivioln	*	*Ivioln	*	*Iempty	*	*Itenor	*	*Ialto	*	*Ivox	*Iempty	*Iempty
*I"Viola Baſso	*	*I"Violino 2do	*	*I"Violino 1mo	*	*I"Baſso	*	*I"Tenore	*	*I"Alto	*	*I"Canto	*I"Clarino 2do Ex. B.	*I"Clarino 1mo Ex. B.
*I'vla basso	*	*I'vl II	*	*I'vl I	*	*I'B	*	*I'T	*	*I'A	*	*I'S	*I'clno II	*I'clno I
*clefF4	*	*clefG2	*	*clefG2	*	*clefF4	*	*clefC4	*	*clefC3	*	*clefC1	*clefG2	*clefG2
*	*	*	*	*	*	*	*	*	*	*	*	*	*ITrd1c2	*ITrd1c2
*k[b-]	*	*k[b-]	*	*k[b-]	*	*k[b-e-]	*	*k[b-e-]	*	*k[b-e-]	*	*k[b-e-]	*k[b-e-]	*k[b-e-]
*F:	*	*F:	*	*F:	*	*	*	*	*	*F:	*	*	*	*
*M2/4	*	*M2/4	*	*M2/4	*	*M2/4	*	*M2/4	*	*M2/4	*	*M2\4	*M2/4	*M2/4
=1	=1	=1	=1	=1	=1	=1	=1	=1	=1	=1	=1	=1	=1	=1
!LO:TX:a:t=P:problem=brak nazwy partii na karcie głosu, na stronie tytułowej "Viola Baſso"	!	!	!	!	!	!	!	!	!	!	!	!LO:TX:a:t=P:problem=w źródle brak partii tego głosu w tej części	!	!
!LO:TX:a:t=P:problem=znaki przy kluczu B-/En/BB-	!	!LO:TX:a:t=P:problem=znaki przy kluczu een/b-	!	!	!	!	!	!	!	!	!	!	!	!
!LO:TX:a:i:t=Solo	!	!LO:TX:b:t=Agnus Solo	!	!LO:TX:a:t=P:problem=znaki przy kluczu b-/een	!	!	!	!	!	!	!	!	!	!
!LO:TX:b:t=Agnus Dei	!	!LO:TX:a:t=Allegro	!	!LO:TX:b:t=Agnus Dei	!	!LO:TX:a:t=P:problem=znaki przy kluczu BB-/E-/B-	!	!LO:TX:b:t=Agnus Dei	!	!LO:TX:b:t=Agnus Dei	!	!	!LO:TX:b:t=Agnus Dei	!LO:TX:b:t=Agnus Dei
!	!	!	!	!	!	!LO:N:vis=00	!	!LO:N:vis=00	!	!LO:N:vis=00	!	!	!LO:N:vis=00	!LO:N:vis=00
4F\	.	4a/	.	4ff\	.	0r	.	0r	.	0r	.	2ryy	0r	0r
4E\	.	4g/	.	4cc\	.	.	.	.	.	.	.	.	.	.
=2	=2	=2	=2	=2	=2	=2	=2	=2	=2	=2	=2	=2	=2	=2
4F\	.	4a/	.	8f/L	.	.	.	.	.	.	.	2ryy	.	.
.	.	.	.	16g/L	.	.	.	.	.	.	.	.	.	.
.	.	.	.	16a/JJ	.	.	.	.	.	.	.	.	.	.
4r	.	16r	.	16b-\LL	.	.	.	.	.	.	.	.	.	.
!	!	!LO:LB:g=original	!	!	!	!	!	!	!	!	!	!	!	!
.	.	16a/LL	.	16cc\	.	.	.	.	.	.	.	.	.	.
.	.	16b-/	.	16dd\	.	.	.	.	.	.	.	.	.	.
!	!	!	!	!LO:TX:a:t=P:problem=♮ above	!	!	!	!	!	!	!	!	!	!
.	.	16cc/JJ	.	16een\JJ	.	.	.	.	.	.	.	.	.	.
=3	=3	=3	=3	=3	=3	=3	=3	=3	=3	=3	=3	=3	=3	=3
4BB-/	.	8dd\L	.	8ff\L	.	.	.	.	.	.	.	2ryy	.	.
!	!	!	!	!LO:TX:a:t=P:problem=♮ above	!	!	!	!	!	!	!	!	!	!
.	.	16cc\L	.	16een\L	.	.	.	.	.	.	.	.	.	.
.	.	16b-\JJ	.	16dd\JJ	.	.	.	.	.	.	.	.	.	.
4C/	.	16a/LL	.	16cc/LL	.	.	.	.	.	.	.	.	.	.
.	.	16g/	.	16b-/	.	.	.	.	.	.	.	.	.	.
.	.	16f/	.	16a/	.	.	.	.	.	.	.	.	.	.
.	.	16e/JJ	.	16g/JJ	.	.	.	.	.	.	.	.	.	.
=4	=4	=4	=4	=4	=4	=4	=4	=4	=4	=4	=4	=4	=4	=4
!LO:TX:a:t=P:problem=mixed beam	!	!	!	!	!	!	!	!	!	!	!	!	!	!
8FF/L	.	8f/	.	8a/	.	.	.	.	.	.	.	2ryy	.	.
16F\L	.	4c/	.	4f/	.	.	.	.	.	.	.	.	.	.
16G\JJ	.	.	.	.	.	.	.	.	.	.	.	.	.	.
8A\L	6	.	.	.	.	.	.	.	.	.	.	.	.	.
8E\J	6 5	8g/	.	16cc\LL	.	.	.	.	.	.	.	.	.	.
.	.	.	.	16b-\JJ	.	.	.	.	.	.	.	.	.	.
=5	=5	=5	=5	=5	=5	=5	=5	=5	=5	=5	=5	=5	=5	=5
!	!	!	!	!	!	!LO:N:vis=00	!	!LO:N:vis=00	!	!LO:N:vis=00	!	!	!LO:N:vis=00	!LO:N:vis=00
4F\	.	8f/L	.	16a/LL	.	0r	.	0r	.	0r	.	2ryy	0r	0r
.	.	.	.	16f/	.	.	.	.	.	.	.	.	.	.
.	.	8g/	.	16b-/	.	.	.	.	.	.	.	.	.	.
.	.	.	.	16f/JJ	.	.	.	.	.	.	.	.	.	.
4r	.	8a/	.	16cc/LL	.	.	.	.	.	.	.	.	.	.
.	.	.	.	16f/	.	.	.	.	.	.	.	.	.	.
.	.	8b-/J	.	16dd/	.	.	.	.	.	.	.	.	.	.
.	.	.	.	16f/JJ	.	.	.	.	.	.	.	.	.	.
=6	=6	=6	=6	=6	=6	=6	=6	=6	=6	=6	=6	=6	=6	=6
4F\	.	8f/L	.	16a/LL	.	.	.	.	.	.	.	2ryy	.	.
.	.	.	.	16f/	.	.	.	.	.	.	.	.	.	.
.	.	8g/	.	16b-/	.	.	.	.	.	.	.	.	.	.
.	.	.	.	16f/JJ	.	.	.	.	.	.	.	.	.	.
4r	.	8a/	.	16cc/LL	.	.	.	.	.	.	.	.	.	.
.	.	.	.	16f/JJ	.	.	.	.	.	.	.	.	.	.
.	.	8b-/J	.	16dd/LL	.	.	.	.	.	.	.	.	.	.
.	.	.	.	16f/JJ	.	.	.	.	.	.	.	.	.	.
=7	=7	=7	=7	=7	=7	=7	=7	=7	=7	=7	=7	=7	=7	=7
4F\	.	8a/L	.	8cc/L	.	.	.	.	.	.	.	2ryy	.	.
.	.	16g/L	.	16b-/L	.	.	.	.	.	.	.	.	.	.
.	.	16f/JJ	.	16a/JJ	.	.	.	.	.	.	.	.	.	.
4B-\	6	8e/L	.	8g/L	.	.	.	.	.	.	.	.	.	.
.	5	8d/J	.	8f/J	.	.	.	.	.	.	.	.	.	.
=8	=8	=8	=8	=8	=8	=8	=8	=8	=8	=8	=8	=8	=8	=8
8c\L	.	8c/L	.	8e/L	.	.	.	.	.	.	.	2ryy	.	.
8B-\J	.	8d/J	.	16f/L	.	.	.	.	.	.	.	.	.	.
.	.	.	.	16g/JJ	.	.	.	.	.	.	.	.	.	.
!LO:TX:a:t=P:problem=mixed beam	!	!	!	!	!	!	!	!	!	!	!	!	!	!
8c\L	.	4c/	.	8c/L	.	.	.	.	.	.	.	.	.	.
8C/J	.	.	.	8e/J	.	.	.	.	.	.	.	.	.	.
=9	=9	=9	=9	=9	=9	=9	=9	=9	=9	=9	=9	=9	=9	=9
!	!	!	!	!	!	!LO:N:vis=00	!	!LO:N:vis=00	!	!LO:N:vis=00	!	!	!LO:N:vis=00	!LO:N:vis=00
8F\L	.	4c/	.	4f/	.	0r	.	0r	.	0r	.	2ryy	0r	0r
16E\L	.	.	.	.	.	.	.	.	.	.	.	.	.	.
16D\JJ	.	.	.	.	.	.	.	.	.	.	.	.	.	.
16C/LL	.	4r	.	4r	.	.	.	.	.	.	.	.	.	.
16BB-/	.	.	.	.	.	.	.	.	.	.	.	.	.	.
16AA/	.	.	.	.	.	.	.	.	.	.	.	.	.	.
!	!	!	!	!LO:TX:b:t=V. cito	!	!	!	!	!	!	!	!	!	!
16GG/JJ	.	.	.	.	.	.	.	.	.	.	.	.	.	.
!	!	!	!	!LO:PB:g=original	!	!	!	!	!	!	!	!	!	!
=10	=10	=10	=10	=10	=10	=10	=10	=10	=10	=10	=10	=10	=10	=10
*	*	*	*	*	*below	*	*	*	*	*	*	*	*	*
4FF/	.	4f/	.	4a/	p	.	.	.	.	.	.	2ryy	.	.
4r	.	4e/	p	4g/	.	.	.	.	.	.	.	.	.	.
!LO:LB:g=original	!	!	!	!	!	!	!	!	!	!	!	!	!	!
=11	=11	=11	=11	=11	=11	=11	=11	=11	=11	=11	=11	=11	=11	=11
!LO:N:vis=00	!	!	!	!	!	!	!	!	!	!	!	!	!	!
0r	.	4f/	.	4a/	.	.	.	.	.	.	.	2ryy	.	.
.	.	4r	.	4r	.	.	.	.	.	.	.	.	.	.
!	!	!LO:LB:g=original	!	!	!	!	!	!	!	!	!	!	!	!
=12	=12	=12	=12	=12	=12	=12	=12	=12	=12	=12	=12	=12	=12	=12
.	.	4B-/	.	8dd\L	.	.	.	.	.	.	.	2ryy	.	.
.	.	.	.	16cc\L	.	.	.	.	.	.	.	.	.	.
.	.	.	.	16b-\JJ	.	.	.	.	.	.	.	.	.	.
.	.	4c/	.	16a/LL	.	.	.	.	.	.	.	.	.	.
.	.	.	.	16g/	.	.	.	.	.	.	.	.	.	.
.	.	.	.	16f/	.	.	.	.	.	.	.	.	.	.
.	.	.	.	16e/JJ	.	.	.	.	.	.	.	.	.	.
=13	=13	=13	=13	=13	=13	=13	=13	=13	=13	=13	=13	=13	=13	=13
!	!	!	!	!	!	!LO:N:vis=00	!	!LO:N:vis=00	!	!LO:N:vis=00	!	!	!LO:N:vis=00	!LO:N:vis=00
.	.	8f/L	.	8f/	.	0r	.	0r	.	0r	.	2ryy	0r	0r
.	.	16f/L	.	4c/	.	.	.	.	.	.	.	.	.	.
.	.	16g/JJ	.	.	.	.	.	.	.	.	.	.	.	.
.	.	8a/L	.	.	.	.	.	.	.	.	.	.	.	.
.	.	8e/J	.	8g/	.	.	.	.	.	.	.	.	.	.
=14	=14	=14	=14	=14	=14	=14	=14	=14	=14	=14	=14	=14	=14	=14
.	.	8f/L	.	16a/LL	.	.	.	.	.	.	.	2ryy	.	.
.	.	.	.	16f/	.	.	.	.	.	.	.	.	.	.
.	.	8g/	.	16b-/	.	.	.	.	.	.	.	.	.	.
.	.	.	.	16f/JJ	.	.	.	.	.	.	.	.	.	.
.	.	8a/	.	16cc/LL	.	.	.	.	.	.	.	.	.	.
.	.	.	.	16f/JJ	.	.	.	.	.	.	.	.	.	.
!	!	!	!	!LO:TX:a:t=P:problem=mixed beam	!	!	!	!	!	!	!	!	!	!
.	.	8b-/J	.	16dd\LL	.	.	.	.	.	.	.	.	.	.
.	.	.	.	16f/JJ	.	.	.	.	.	.	.	.	.	.
=15	=15	=15	=15	=15	=15	=15	=15	=15	=15	=15	=15	=15	=15	=15
!LO:N:vis=0	!	!	!	!	!	!	!	!	!	!	!	!	!	!
1r	.	8f/L	.	16a/LL	.	.	.	.	.	.	.	2ryy	.	.
.	.	.	.	16f/	.	.	.	.	.	.	.	.	.	.
.	.	8g/	.	16b-/	.	.	.	.	.	.	.	.	.	.
.	.	.	.	16f/JJ	.	.	.	.	.	.	.	.	.	.
.	.	8a/	.	16cc/LL	.	.	.	.	.	.	.	.	.	.
.	.	.	.	16f/JJ	.	.	.	.	.	.	.	.	.	.
!	!	!	!	!LO:TX:a:t=P:problem=mixed beam	!	!	!	!	!	!	!	!	!	!
.	.	8b-/J	.	16dd\LL	.	.	.	.	.	.	.	.	.	.
.	.	.	.	16f/JJ	.	.	.	.	.	.	.	.	.	.
=16	=16	=16	=16	=16	=16	=16	=16	=16	=16	=16	=16	=16	=16	=16
.	.	4f/	.	8cc/L	.	.	.	.	.	.	.	2ryy	.	.
.	.	.	.	16b-/L	.	.	.	.	.	.	.	.	.	.
.	.	.	.	16a/JJ	.	.	.	.	.	.	.	.	.	.
.	.	4B-/	.	8g/L	.	.	.	.	.	.	.	.	.	.
.	.	.	.	8f/J	.	.	.	.	.	.	.	.	.	.
=17	=17	=17	=17	=17	=17	=17	=17	=17	=17	=17	=17	=17	=17	=17
!	!	!	!	!	!	!LO:N:vis=00	!	!LO:N:vis=00	!	!LO:N:vis=00	!	!	!LO:N:vis=00	!LO:N:vis=00
2r	.	8c/L	.	8e/L	.	0r	.	0r	.	0r	.	2ryy	0r	0r
.	.	8f/J	.	16f/L	.	.	.	.	.	.	.	.	.	.
.	.	.	.	16g/JJ	.	.	.	.	.	.	.	.	.	.
.	.	8c/L	.	4g/	.	.	.	.	.	.	.	.	.	.
.	.	8c/J	.	.	.	.	.	.	.	.	.	.	.	.
=18	=18	=18	=18	=18	=18	=18	=18	=18	=18	=18	=18	=18	=18	=18
8F\L	.	4f/	.	4f/	.	.	.	.	.	.	.	2ryy	.	.
16E\L	.	.	.	.	.	.	.	.	.	.	.	.	.	.
16D\JJ	.	.	.	.	.	.	.	.	.	.	.	.	.	.
16C/LL	.	4r	.	4r	.	.	.	.	.	.	.	.	.	.
16BB-/	.	.	.	.	.	.	.	.	.	.	.	.	.	.
16AA/	.	.	.	.	.	.	.	.	.	.	.	.	.	.
16GG/JJ	.	.	.	.	.	.	.	.	.	.	.	.	.	.
=19	=19	=19	=19	=19	=19	=19	=19	=19	=19	=19	=19	=19	=19	=19
!	!	!LO:N:vis=0	!	!LO:N:vis=0	!	!	!	!	!	!	!	!	!	!
4FF/	.	1r	.	1r	.	.	.	.	.	.	.	2ryy	.	.
8r	.	.	.	.	.	.	.	.	.	.	.	.	.	.
8F\	6 5	.	.	.	.	.	.	.	.	.	.	.	.	.
=20	=20	=20	=20	=20	=20	=20	=20	=20	=20	=20	=20	=20	=20	=20
!LO:TX:a:t=P:problem=mixed beam	!	!	!	!	!	!	!	!	!	!	!	!	!	!
8G\L	n	.	.	.	.	.	.	.	.	.	.	2ryy	.	.
8F\	6 5	.	.	.	.	.	.	.	.	.	.	.	.	.
8G\	4	.	.	.	.	.	.	.	.	.	.	.	.	.
8GG/J	n3	.	.	.	.	.	.	.	.	.	.	.	.	.
=21	=21	=21	=21	=21	=21	=21	=21	=21	=21	=21	=21	=21	=21	=21
!	!	!	!	!	!	!LO:N:vis=00	!	!LO:N:vis=00	!	!LO:N:vis=00	!	!	!LO:N:vis=00	!LO:N:vis=00
4C/	.	2r	.	4r	.	0r	.	0r	.	0r	.	2ryy	0r	0r
4r	.	.	.	8r	.	.	.	.	.	.	.	.	.	.
.	.	.	.	16cc\LL	p	.	.	.	.	.	.	.	.	.
.	.	.	.	16dd\JJ	.	.	.	.	.	.	.	.	.	.
!	!	!	!	!LO:LB:g=original	!	!	!	!	!	!	!	!	!	!
=22	=22	=22	=22	=22	=22	=22	=22	=22	=22	=22	=22	=22	=22	=22
!LO:N:vis=0	!	!	!LO:DY:a	!	!	!	!	!	!	!	!	!	!	!
1r	.	8c/L	p	16ee\LL	.	.	.	.	.	.	.	2ryy	.	.
.	.	.	.	16cc\	.	.	.	.	.	.	.	.	.	.
.	.	8d/	.	16ff\	.	.	.	.	.	.	.	.	.	.
.	.	.	.	16cc\JJ	.	.	.	.	.	.	.	.	.	.
.	.	8e/	.	16gg\LL	.	.	.	.	.	.	.	.	.	.
.	.	.	.	16cc\	.	.	.	.	.	.	.	.	.	.
.	.	8f/J	.	16aa\	.	.	.	.	.	.	.	.	.	.
.	.	.	.	16cc\JJ	.	.	.	.	.	.	.	.	.	.
!	!	!LO:LB:g=original	!	!	!	!	!	!	!	!	!	!	!	!
=23	=23	=23	=23	=23	=23	=23	=23	=23	=23	=23	=23	=23	=23	=23
.	.	8c/L	.	16ee\LL	.	.	.	.	.	.	.	2ryy	.	.
.	.	.	.	16cc\	.	.	.	.	.	.	.	.	.	.
.	.	8d/	.	16ff\	.	.	.	.	.	.	.	.	.	.
.	.	.	.	16cc\JJ	.	.	.	.	.	.	.	.	.	.
.	.	8e/	.	16gg\LL	.	.	.	.	.	.	.	.	.	.
.	.	.	.	16cc\	.	.	.	.	.	.	.	.	.	.
.	.	8f/J	.	16aa\	.	.	.	.	.	.	.	.	.	.
.	.	.	.	16cc\JJ	.	.	.	.	.	.	.	.	.	.
=24	=24	=24	=24	=24	=24	=24	=24	=24	=24	=24	=24	=24	=24	=24
8c\L	.	4e/	.	4gg\	.	.	.	.	.	.	.	2ryy	.	.
16Bn\L	.	.	.	.	.	.	.	.	.	.	.	.	.	.
16A\JJ	.	.	.	.	.	.	.	.	.	.	.	.	.	.
16G\LL	n_	4r	.	4r	.	.	.	.	.	.	.	.	.	.
16F\	.	.	.	.	.	.	.	.	.	.	.	.	.	.
16E\	.	.	.	.	.	.	.	.	.	.	.	.	.	.
16D\JJ	X	.	.	.	.	.	.	.	.	.	.	.	.	.
=25	=25	=25	=25	=25	=25	=25	=25	=25	=25	=25	=25	=25	=25	=25
!LO:TX:a:t=P:problem=mixed beam	!	!	!	!	!	!	!	!	!	!	!	!	!	!
!	!	!	!	!	!	!LO:N:vis=00	!	!LO:N:vis=00	!	!LO:N:vis=00	!	!	!LO:N:vis=00	!LO:N:vis=00
8C\L	.	2r	.	2r	.	0r	.	0r	.	0r	.	2ryy	0r	0r
8F\	6	.	.	.	.	.	.	.	.	.	.	.	.	.
8G\	.	.	.	.	.	.	.	.	.	.	.	.	.	.
8GG/J	4	.	.	.	.	.	.	.	.	.	.	.	.	.
.	3	.	.	.	.	.	.	.	.	.	.	.	.	.
=26	=26	=26	=26	=26	=26	=26	=26	=26	=26	=26	=26	=26	=26	=26
!	!	!	!LO:DY:a	!	!	!	!	!	!	!	!	!	!	!
4C/	.	4e/	f	4cc\	.	.	.	.	.	.	.	2ryy	.	.
4BBn/	.	4d/	.	4g/	.	.	.	.	.	.	.	.	.	.
=27	=27	=27	=27	=27	=27	=27	=27	=27	=27	=27	=27	=27	=27	=27
4C/	.	4e/	.	8c/L	.	.	.	.	.	.	.	2ryy	.	.
.	.	.	.	16d/L	.	.	.	.	.	.	.	.	.	.
.	.	.	.	16e/JJ	.	.	.	.	.	.	.	.	.	.
4r	.	8r	.	16f/LL	.	.	.	.	.	.	.	.	.	.
.	.	.	.	16g/	.	.	.	.	.	.	.	.	.	.
.	.	8e/	.	16a/	.	.	.	.	.	.	.	.	.	.
.	.	.	.	16bn/JJ	.	.	.	.	.	.	.	.	.	.
=28	=28	=28	=28	=28	=28	=28	=28	=28	=28	=28	=28	=28	=28	=28
4F\	.	8a/L	.	8cc/L	.	.	.	.	.	.	.	2ryy	.	.
.	.	16g/L	.	16bn/L	.	.	.	.	.	.	.	.	.	.
.	.	16f/JJ	.	16a/JJ	.	.	.	.	.	.	.	.	.	.
4G\	n	16e/LL	.	16g/LL	.	.	.	.	.	.	.	.	.	.
.	.	16d/	.	16f/	.	.	.	.	.	.	.	.	.	.
.	.	16c/	.	16e/	.	.	.	.	.	.	.	.	.	.
.	.	16Bn/JJ	.	16d/JJ	.	.	.	.	.	.	.	.	.	.
!LO:LB:g=original	!	!	!	!	!	!	!	!	!	!	!	!	!	!
=29	=29	=29	=29	=29	=29	=29	=29	=29	=29	=29	=29	=29	=29	=29
!	!	!	!	!	!	!LO:N:vis=00	!	!LO:N:vis=00	!	!LO:N:vis=00	!	!	!LO:N:vis=00	!LO:N:vis=00
8C/L	.	8c/L	.	8e/	.	0r	.	0r	.	0r	.	2ryy	0r	0r
16C/L	.	16e/L	.	4c/	.	.	.	.	.	.	.	.	.	.
16D/JJ	.	16f/JJ	.	.	.	.	.	.	.	.	.	.	.	.
8E/L	.	8g/L	.	.	.	.	.	.	.	.	.	.	.	.
8BBn/J	6	8g/J	.	16cc\LL	.	.	.	.	.	.	.	.	.	.
.	.	.	.	16dd\JJ	.	.	.	.	.	.	.	.	.	.
=30	=30	=30	=30	=30	=30	=30	=30	=30	=30	=30	=30	=30	=30	=30
4C/	.	8cc\L	.	16ee\LL	.	.	.	.	.	.	.	2ryy	.	.
.	.	.	.	16cc\	.	.	.	.	.	.	.	.	.	.
.	.	8dd\	.	16ff\	.	.	.	.	.	.	.	.	.	.
.	.	.	.	16cc\JJ	.	.	.	.	.	.	.	.	.	.
!	!	!	!	!LO:LB:g=original	!	!	!	!	!	!	!	!	!	!
4r	.	8ee\	.	16gg\LL	.	.	.	.	.	.	.	.	.	.
.	.	.	.	16cc\	.	.	.	.	.	.	.	.	.	.
.	.	8ff\J	.	16aa\	.	.	.	.	.	.	.	.	.	.
.	.	.	.	16cc\JJ	.	.	.	.	.	.	.	.	.	.
=31	=31	=31	=31	=31	=31	=31	=31	=31	=31	=31	=31	=31	=31	=31
4C/	.	8cc\L	.	16ee\LL	.	.	.	.	.	.	.	2ryy	.	.
.	.	.	.	16cc\	.	.	.	.	.	.	.	.	.	.
.	.	8dd\	.	16ff\	.	.	.	.	.	.	.	.	.	.
.	.	.	.	16cc\JJ	.	.	.	.	.	.	.	.	.	.
4r	.	8ee\	.	16gg\LL	.	.	.	.	.	.	.	.	.	.
.	.	.	.	16cc\	.	.	.	.	.	.	.	.	.	.
.	.	8ff\J	.	16aa\	.	.	.	.	.	.	.	.	.	.
.	.	.	.	16cc\JJ	.	.	.	.	.	.	.	.	.	.
=32	=32	=32	=32	=32	=32	=32	=32	=32	=32	=32	=32	=32	=32	=32
4C/	.	8ee\L	.	8gg\L	.	.	.	.	.	.	.	2ryy	.	.
.	.	16dd\L	.	16ff\L	.	.	.	.	.	.	.	.	.	.
.	.	16cc\JJ	.	16ee\JJ	.	.	.	.	.	.	.	.	.	.
!	!	!LO:LB:g=original	!	!	!	!	!	!	!	!	!	!	!	!
4F\	6	8bn/L	.	8dd\L	.	.	.	.	.	.	.	.	.	.
.	5	8a/J	.	8cc\J	.	.	.	.	.	.	.	.	.	.
=33	=33	=33	=33	=33	=33	=33	=33	=33	=33	=33	=33	=33	=33	=33
!LO:TX:a:t=P:problem=mixed beam	!	!	!	!	!	!	!	!	!	!	!	!	!	!
!	!	!	!	!	!	!LO:N:vis=00	!	!LO:N:vis=00	!	!LO:N:vis=00	!	!	!LO:N:vis=00	!LO:N:vis=00
8G\L	n	8g/L	.	8bn\L	.	0r	.	0r	.	0r	.	2ryy	0r	0r
8F\	6 5	8a/J	.	16cc\L	.	.	.	.	.	.	.	.	.	.
.	.	.	.	16dd\JJ	.	.	.	.	.	.	.	.	.	.
8G\	5 4	8d/L	.	8g/L	.	.	.	.	.	.	.	.	.	.
8GG/J	x n3	8g/J	.	8bn/J	.	.	.	.	.	.	.	.	.	.
=34	=34	=34	=34	=34	=34	=34	=34	=34	=34	=34	=34	=34	=34	=34
4C/	.	4e/	.	4cc\	.	.	.	.	.	.	.	2ryy	.	.
8r	.	4r	.	4r	.	.	.	.	.	.	.	.	.	.
8E\	#	.	.	.	.	.	.	.	.	.	.	.	.	.
=35	=35	=35	=35	=35	=35	=35	=35	=35	=35	=35	=35	=35	=35	=35
!LO:TX:a:t=P:problem=mixed beam	!	!LO:N:vis=0	!	!LO:N:vis=0	!	!	!	!	!	!	!	!	!	!
8A\L	.	1r	.	1r	.	.	.	.	.	.	.	2ryy	.	.
16AA/L	n_	.	.	.	.	.	.	.	.	.	.	.	.	.
!LO:TX:b:t=P:problem=♮ below	!	!	!	!	!	!	!	!	!	!	!	!	!	!
16BBn/JJ	X	.	.	.	.	.	.	.	.	.	.	.	.	.
8C/L	.	.	.	.	.	.	.	.	.	.	.	.	.	.
8AA/J	.	.	.	.	.	.	.	.	.	.	.	.	.	.
=36	=36	=36	=36	=36	=36	=36	=36	=36	=36	=36	=36	=36	=36	=36
8D\L	n	.	.	.	.	.	.	.	.	.	.	2ryy	.	.
16D\L	.	.	.	.	.	.	.	.	.	.	.	.	.	.
16E\JJ	.	.	.	.	.	.	.	.	.	.	.	.	.	.
8F\L	.	.	.	.	.	.	.	.	.	.	.	.	.	.
8D\J	.	.	.	.	.	.	.	.	.	.	.	.	.	.
=37	=37	=37	=37	=37	=37	=37	=37	=37	=37	=37	=37	=37	=37	=37
!	!	!	!	!	!	!LO:N:vis=00	!	!LO:N:vis=00	!	!LO:N:vis=00	!	!	!LO:N:vis=00	!LO:N:vis=00
4E\	#	8e/L	.	16g#X/LL	p	0r	.	0r	.	0r	.	2ryy	0r	0r
.	.	.	.	16e/	.	.	.	.	.	.	.	.	.	.
.	.	8f#X/	p	16a/	.	.	.	.	.	.	.	.	.	.
.	.	.	.	16e/JJ	.	.	.	.	.	.	.	.	.	.
4r	.	8g#X/	.	16bn/LL	.	.	.	.	.	.	.	.	.	.
.	.	.	.	16e/JJ	.	.	.	.	.	.	.	.	.	.
.	.	8a/J	.	16cc/LL	.	.	.	.	.	.	.	.	.	.
.	.	.	.	16e/JJ	.	.	.	.	.	.	.	.	.	.
!LO:LB:g=original	!	!	!	!	!	!	!	!	!	!	!	!	!	!
=38	=38	=38	=38	=38	=38	=38	=38	=38	=38	=38	=38	=38	=38	=38
4E\	#	8e/L	.	16g#X/LL	.	.	.	.	.	.	.	2ryy	.	.
.	.	.	.	16e/JJ	.	.	.	.	.	.	.	.	.	.
.	.	8f#X/	.	16a/LL	.	.	.	.	.	.	.	.	.	.
.	.	.	.	16e/JJ	.	.	.	.	.	.	.	.	.	.
4r	.	8g#X/	.	16bn/LL	.	.	.	.	.	.	.	.	.	.
.	.	.	.	16e/JJ	.	.	.	.	.	.	.	.	.	.
.	.	8a/J	.	16cc/LL	.	.	.	.	.	.	.	.	.	.
.	.	.	.	16e/JJ	.	.	.	.	.	.	.	.	.	.
!	!	!	!	!LO:LB:g=original	!	!	!	!	!	!	!	!	!	!
=39	=39	=39	=39	=39	=39	=39	=39	=39	=39	=39	=39	=39	=39	=39
8r	.	4g#X/	.	4bn/	.	.	.	.	.	.	.	2ryy	.	.
16E\LL	#	.	.	.	.	.	.	.	.	.	.	.	.	.
16F#X\JJ	.	.	.	.	.	.	.	.	.	.	.	.	.	.
8G#X\L	.	4r	.	4r	.	.	.	.	.	.	.	.	.	.
8E\J	.	.	.	.	.	.	.	.	.	.	.	.	.	.
=40	=40	=40	=40	=40	=40	=40	=40	=40	=40	=40	=40	=40	=40	=40
!LO:TX:a:t=P:problem=mixed beam	!	!LO:N:vis=0	!	!	!	!	!	!	!	!	!	!	!	!
8A\L	n	1r	.	2r	.	.	.	.	.	.	.	2ryy	.	.
!LO:SIC:o=8BB-/J:v	!	!	!	!	!	!	!	!	!	!	!	!	!	!
8AA	6\ 5	.	.	.	.	.	.	.	.	.	.	.	.	.
!LO:TX:a:t=P:problem=mixed beam	!	!	!	!	!	!	!	!	!	!	!	!	!	!
8E/L	.	.	.	.	.	.	.	.	.	.	.	.	.	.
8EE/J	#	.	.	.	.	.	.	.	.	.	.	.	.	.
!	!	!	!	!	!	!	!	!	!	!	!	!	!LO:LB:g=original	!
=41	=41	=41	=41	=41	=41	=41	=41	=41	=41	=41	=41	=41	=41	=41
!	!	!	!	!	!	!LO:N:vis=00	!	!LO:N:vis=00	!	!LO:N:vis=00	!	!	!LO:N:vis=00	!LO:N:vis=00
8AA/L	.	.	.	4r	.	0r	.	0r	.	0r	.	2ryy	0r	0r
16BBn/L	.	.	.	.	.	.	.	.	.	.	.	.	.	.
16C#X/JJ	.	.	.	.	.	.	.	.	.	.	.	.	.	.
16D\LL	-	.	.	8r	.	.	.	.	.	.	.	.	.	.
16E\	.	.	.	.	.	.	.	.	.	.	.	.	.	.
16F\	.	.	.	16a/LL	p	.	.	.	.	.	.	.	.	.
16G\JJ	.	.	.	16bn/JJ	.	.	.	.	.	.	.	.	.	.
=42	=42	=42	=42	=42	=42	=42	=42	=42	=42	=42	=42	=42	=42	=42
4A\	#	8a\L	.	16cc#X\LL	.	.	.	.	.	.	.	2ryy	.	.
.	.	.	.	16a\	.	.	.	.	.	.	.	.	.	.
.	.	8bn\	.	16dd\	.	.	.	.	.	.	.	.	.	.
.	.	.	.	16a\JJ	.	.	.	.	.	.	.	.	.	.
4r	.	8cc#X\	.	16ee\LL	.	.	.	.	.	.	.	.	.	.
.	.	.	.	16a\JJ	.	.	.	.	.	.	.	.	.	.
.	.	8dd\J	.	16ff\LL	.	.	.	.	.	.	.	.	.	.
.	.	.	.	16a\JJ	.	.	.	.	.	.	.	.	.	.
=43	=43	=43	=43	=43	=43	=43	=43	=43	=43	=43	=43	=43	=43	=43
4A\	#	8a\L	.	16cc#X\LL	.	.	.	.	.	.	.	2ryy	.	.
.	.	.	.	16a\	.	.	.	.	.	.	.	.	.	.
.	.	8bn\	.	16dd\	.	.	.	.	.	.	.	.	.	.
.	.	.	.	16a\JJ	.	.	.	.	.	.	.	.	.	.
4r	.	8cc#X\	.	16ee\LL	.	.	.	.	.	.	.	.	.	.
.	.	.	.	16a\JJ	.	.	.	.	.	.	.	.	.	.
.	.	8dd\J	.	16ff\LL	.	.	.	.	.	.	.	.	.	.
.	.	.	.	16a\JJ	.	.	.	.	.	.	.	.	.	.
!	!	!LO:LB:g=original	!	!	!	!	!	!	!	!	!	!	!	!
=44	=44	=44	=44	=44	=44	=44	=44	=44	=44	=44	=44	=44	=44	=44
8A\L	#	8cc#X\L	.	8ee\L	.	.	.	.	.	.	.	2ryy	.	.
8D\J	n	8a\J	.	8dd\J	.	.	.	.	.	.	.	.	.	.
!LO:TX:a:t=P:problem=mixed beam	!	!	!	!	!	!	!	!	!	!	!	!	!	!
8A\L	.	4r	.	4r	.	.	.	.	.	.	.	.	.	.
8AA/J	#	.	.	.	.	.	.	.	.	.	.	.	.	.
=45	=45	=45	=45	=45	=45	=45	=45	=45	=45	=45	=45	=45	=45	=45
!	!	!	!LO:DY:a	!	!	!	!	!	!	!	!	!	!	!
!	!	!	!	!	!	!LO:N:vis=00	!	!LO:N:vis=00	!	!LO:N:vis=00	!	!	!LO:N:vis=00	!LO:N:vis=00
4D/	.	4f/	f	4dd\	f	0r	.	0r	.	0r	.	2ryy	0r	0r
4C#X/	6	4e/	.	4g/	.	.	.	.	.	.	.	.	.	.
=46	=46	=46	=46	=46	=46	=46	=46	=46	=46	=46	=46	=46	=46	=46
4D/	.	4f/	.	8d/L	.	.	.	.	.	.	.	2ryy	.	.
.	.	.	.	16e/L	.	.	.	.	.	.	.	.	.	.
.	.	.	.	16f/JJ	.	.	.	.	.	.	.	.	.	.
4r	.	4r	.	16g/LL	.	.	.	.	.	.	.	.	.	.
.	.	.	.	16a/	.	.	.	.	.	.	.	.	.	.
!	!	!	!	!LO:TX:a:t=P:problem=♮ above	!	!	!	!	!	!	!	!	!	!
.	.	.	.	16bn/	.	.	.	.	.	.	.	.	.	.
.	.	.	.	16cc/JJ	.	.	.	.	.	.	.	.	.	.
!LO:LB:g=original	!	!	!	!	!	!	!	!	!	!	!	!	!	!
=47	=47	=47	=47	=47	=47	=47	=47	=47	=47	=47	=47	=47	=47	=47
4D/	.	4a/	.	8dd\L	.	.	.	.	.	.	.	2ryy	.	.
.	.	.	.	16ccn\L	.	.	.	.	.	.	.	.	.	.
.	.	.	.	16b-X\JJ	.	.	.	.	.	.	.	.	.	.
8r	.	8r	.	16a/LL	.	.	.	.	.	.	.	.	.	.
.	.	.	.	16g/	.	.	.	.	.	.	.	.	.	.
8c\	.	8g/	.	16f/	.	.	.	.	.	.	.	.	.	.
.	.	.	.	16e/JJ	.	.	.	.	.	.	.	.	.	.
!	!	!	!	!LO:LB:g=original	!	!	!	!	!	!	!	!	!	!
=48	=48	=48	=48	=48	=48	=48	=48	=48	=48	=48	=48	=48	=48	=48
8d\L	.	8d/L	.	8f/L	.	.	.	.	.	.	.	2ryy	.	.
8B-\J	.	8d/J	.	16g/L	.	.	.	.	.	.	.	.	.	.
.	.	.	.	16a/JJ	.	.	.	.	.	.	.	.	.	.
!LO:TX:a:t=P:problem=mixed beam	!	!	!	!	!	!	!	!	!	!	!	!	!	!
8c\L	.	8c/L	.	8c/L	.	.	.	.	.	.	.	.	.	.
8C/J	4	8c/J	.	8e/J	.	.	.	.	.	.	.	.	.	.
.	3	.	.	.	.	.	.	.	.	.	.	.	.	.
=49	=49	=49	=49	=49	=49	=49	=49	=49	=49	=49	=49	=49	=49	=49
!	!	!	!	!	!	!LO:N:vis=00	!	!LO:N:vis=00	!	!LO:N:vis=00	!	!	!LO:N:vis=00	!LO:N:vis=00
8F\L	.	4c/	.	4f/	.	0r	.	0r	.	0r	.	2ryy	0r	0r
16E\L	.	.	.	.	.	.	.	.	.	.	.	.	.	.
16D\JJ	.	.	.	.	.	.	.	.	.	.	.	.	.	.
16C/LL	.	4r	.	4r	.	.	.	.	.	.	.	.	.	.
16BB-/	.	.	.	.	.	.	.	.	.	.	.	.	.	.
16AA/	.	.	.	.	.	.	.	.	.	.	.	.	.	.
16GG/JJ	.	.	.	.	.	.	.	.	.	.	.	.	.	.
=50	=50	=50	=50	=50	=50	=50	=50	=50	=50	=50	=50	=50	=50	=50
4FF/	.	8f/L	.	16a\LL	.	.	.	.	.	.	.	2ryy	.	.
.	.	.	.	16ff\	.	.	.	.	.	.	.	.	.	.
.	.	8g/	p	16b-\	.	.	.	.	.	.	.	.	.	.
.	.	.	.	16ff\JJ	.	.	.	.	.	.	.	.	.	.
4r	.	8a/	.	16cc\LL	.	.	.	.	.	.	.	.	.	.
.	.	.	.	16ff\	.	.	.	.	.	.	.	.	.	.
.	.	8b-/J	.	16dd\	.	.	.	.	.	.	.	.	.	.
.	.	.	.	16ff\JJ	.	.	.	.	.	.	.	.	.	.
=51	=51	=51	=51	=51	=51	=51	=51	=51	=51	=51	=51	=51	=51	=51
4FF/	.	8f/L	.	16a\LL	.	.	.	.	.	.	.	2ryy	.	.
.	.	.	.	16ff\	.	.	.	.	.	.	.	.	.	.
.	.	8g/	.	16b-\	.	.	.	.	.	.	.	.	.	.
.	.	.	.	16ff\JJ	.	.	.	.	.	.	.	.	.	.
4r	.	8a/	.	16cc\LL	.	.	.	.	.	.	.	.	.	.
.	.	.	.	16ff\	.	.	.	.	.	.	.	.	.	.
.	.	8b-/J	.	16dd\	.	.	.	.	.	.	.	.	.	.
.	.	.	.	16ff\JJ	.	.	.	.	.	.	.	.	.	.
=52	=52	=52	=52	=52	=52	=52	=52	=52	=52	=52	=52	=52	=52	=52
8FF/L	.	4c/	.	4a/	.	.	.	.	.	.	.	2ryy	.	.
16GG/L	.	.	.	.	.	.	.	.	.	.	.	.	.	.
16AA/JJ	.	.	.	.	.	.	.	.	.	.	.	.	.	.
16BB-/LL	.	4r	.	4r	.	.	.	.	.	.	.	.	.	.
16C/	.	.	.	.	.	.	.	.	.	.	.	.	.	.
16D/	.	.	.	.	.	.	.	.	.	.	.	.	.	.
16E/JJ	.	.	.	.	.	.	.	.	.	.	.	.	.	.
=53	=53	=53	=53	=53	=53	=53	=53	=53	=53	=53	=53	=53	=53	=53
!LO:TX:a:t=P:problem=mixed beam	!	!LO:TX:a:t=1	!	!	!	!	!	!	!	!	!	!	!	!
!	!	!	!	!	!	!LO:N:vis=00	!	!LO:N:vis=00	!	!LO:N:vis=00	!	!	!LO:N:vis=00	!LO:N:vis=00
8F\L	.	2r	.	2r	.	0r	.	0r	.	0r	.	2ryy	0r	0r
8B-\	.	.	.	.	.	.	.	.	.	.	.	.	.	.
8c\	.	.	.	.	.	.	.	.	.	.	.	.	.	.
8C/J	.	.	.	.	.	.	.	.	.	.	.	.	.	.
=54	=54	=54	=54	=54	=54	=54	=54	=54	=54	=54	=54	=54	=54	=54
4F\	.	4a/	.	4ff\	f	.	.	.	.	.	.	2ryy	.	.
4E\	6	4g/	.	4cc\	.	.	.	.	.	.	.	.	.	.
=55	=55	=55	=55	=55	=55	=55	=55	=55	=55	=55	=55	=55	=55	=55
4F\	.	4a/	.	8f/L	.	.	.	.	.	.	.	2ryy	.	.
.	.	.	.	16g/L	.	.	.	.	.	.	.	.	.	.
.	.	.	.	16a/JJ	.	.	.	.	.	.	.	.	.	.
4r	.	16r	.	16b-\LL	.	.	.	.	.	.	.	.	.	.
!	!	!LO:LB:g=original	!	!	!	!	!	!	!	!	!	!	!	!
.	.	16a/LL	.	16cc\	.	.	.	.	.	.	.	.	.	.
.	.	16b-/	.	16dd\	.	.	.	.	.	.	.	.	.	.
.	.	16cc/JJ	.	16ee\JJ	.	.	.	.	.	.	.	.	.	.
=56	=56	=56	=56	=56	=56	=56	=56	=56	=56	=56	=56	=56	=56	=56
4BB-/	.	8dd\L	.	8ff\L	.	.	.	.	.	.	.	2ryy	.	.
.	.	16cc\L	.	16ee\L	.	.	.	.	.	.	.	.	.	.
.	.	16b-\JJ	.	16dd\JJ	.	.	.	.	.	.	.	.	.	.
4C/	.	16a/LL	.	16cc\LL	.	.	.	.	.	.	.	.	.	.
.	.	16g/	.	16b-\	.	.	.	.	.	.	.	.	.	.
.	.	16f/	.	16a\	.	.	.	.	.	.	.	.	.	.
!	!	!LO:N:vis=16.	!	!	!	!	!	!	!	!	!	!	!	!
.	.	16e/JJ	.	16g\JJ	.	.	.	.	.	.	.	.	.	.
!LO:LB:g=original	!	!	!	!LO:LB:g=original	!	!	!	!	!	!	!	!	!	!
=57	=57	=57	=57	=57	=57	=57	=57	=57	=57	=57	=57	=57	=57	=57
!LO:TX:a:t=P:problem=mixed beam	!	!	!	!	!	!	!	!	!	!	!	!	!	!
!	!	!	!	!	!	!LO:N:vis=00	!	!LO:N:vis=00	!	!LO:N:vis=00	!	!	!LO:N:vis=00	!LO:N:vis=00
8FF/L	.	8f/	.	8a/	.	0r	.	0r	.	0r	.	2ryy	0r	0r
16F\L	.	4c/	.	4f/	.	.	.	.	.	.	.	.	.	.
16G\JJ	.	.	.	.	.	.	.	.	.	.	.	.	.	.
8A\L	6	.	.	.	.	.	.	.	.	.	.	.	.	.
8E\J	6 5	8g/	.	16cc\LL	.	.	.	.	.	.	.	.	.	.
.	.	.	.	16b-\JJ	.	.	.	.	.	.	.	.	.	.
=58	=58	=58	=58	=58	=58	=58	=58	=58	=58	=58	=58	=58	=58	=58
4F\	.	8f/L	.	16a/LL	.	.	.	.	.	.	.	2ryy	.	.
.	.	.	.	16f/JJ	.	.	.	.	.	.	.	.	.	.
.	.	8g/	.	16b-/LL	.	.	.	.	.	.	.	.	.	.
.	.	.	.	16f/JJ	.	.	.	.	.	.	.	.	.	.
4r	.	8a/	.	16cc/LL	.	.	.	.	.	.	.	.	.	.
.	.	.	.	16f/JJ	.	.	.	.	.	.	.	.	.	.
!	!	!	!	!LO:TX:a:t=P:problem=mixed beam	!	!	!	!	!	!	!	!	!	!
.	.	8b-/J	.	16dd\LL	.	.	.	.	.	.	.	.	.	.
.	.	.	.	16f/JJ	.	.	.	.	.	.	.	.	.	.
=59	=59	=59	=59	=59	=59	=59	=59	=59	=59	=59	=59	=59	=59	=59
4F\	.	8f/L	.	16a/LL	.	.	.	.	.	.	.	2ryy	.	.
.	.	.	.	16f/JJ	.	.	.	.	.	.	.	.	.	.
.	.	8g/	.	16b-/LL	.	.	.	.	.	.	.	.	.	.
.	.	.	.	16f/JJ	.	.	.	.	.	.	.	.	.	.
4r	.	8a/	.	16cc/LL	.	.	.	.	.	.	.	.	.	.
.	.	.	.	16f/JJ	.	.	.	.	.	.	.	.	.	.
!	!	!	!	!LO:TX:a:t=P:problem=mixed beam	!	!	!	!	!	!	!	!	!	!
.	.	8b-/J	.	16dd\LL	.	.	.	.	.	.	.	.	.	.
.	.	.	.	16f/JJ	.	.	.	.	.	.	.	.	.	.
=60	=60	=60	=60	=60	=60	=60	=60	=60	=60	=60	=60	=60	=60	=60
4F\	.	8a/L	.	8cc/L	.	.	.	.	.	.	.	2ryy	.	.
.	.	16g/L	.	16b-/L	.	.	.	.	.	.	.	.	.	.
.	.	16f/JJ	.	16a/JJ	.	.	.	.	.	.	.	.	.	.
4B-\	6	8e/L	.	8g/L	.	.	.	.	.	.	.	.	.	.
.	5	8d/J	.	8f/J	.	.	.	.	.	.	.	.	.	.
=61	=61	=61	=61	=61	=61	=61	=61	=61	=61	=61	=61	=61	=61	=61
!	!	!	!	!	!	!LO:N:vis=0	!	!LO:N:vis=0	!	!LO:N:vis=0	!	!	!LO:N:vis=0	!LO:N:vis=0
8c\L	.	8c/L	.	8e/L	.	1r	.	1r	.	1r	.	2ryy	1r	1r
8B-\J	.	8d/J	.	16f/L	.	.	.	.	.	.	.	.	.	.
.	.	.	.	16g/JJ	.	.	.	.	.	.	.	.	.	.
!LO:TX:a:t=P:problem=mixed beam	!	!	!	!	!	!	!	!	!	!	!	!	!	!
8c\L	.	4c/	.	8c/L	.	.	.	.	.	.	.	.	.	.
8C/J	4	.	.	8e/J	.	.	.	.	.	.	.	.	.	.
.	3	.	.	.	.	.	.	.	.	.	.	.	.	.
=62	=62	=62	=62	=62	=62	=62	=62	=62	=62	=62	=62	=62	=62	=62
4F\	.	4c/	.	4f/	.	.	.	.	.	.	.	2ryy	.	.
!	!	!LO:TX:b:t=Verte	!	!	!	!	!	!	!	!	!	!	!	!
4r	.	4r	.	4r	.	.	.	.	.	.	.	.	.	.
!	!	!LO:LB:g=original	!	!	!	!	!	!	!	!	!	!	!	!
=63||	=63||	=63||	=63||	=63||	=63||	=63||	=63||	=63||	=63||	=63||	=63||	=63||	=63||	=63||
*k[b-e-]	*	*k[b-e-]	*	*k[b-e-]	*	*	*	*	*	*	*	*	*	*
*B-:	*	*B-:	*	*B-:	*	*B-:	*	*B-:	*	*B-:	*	*	*	*
*M3/4	*	*M3/4	*	*M3/4	*	*M3/4	*	*M3/4	*	*M3/4	*	*	*M3/4	*M3/4
*2\right	*	*2\right	*	*2\right	*	*2\right	*	*2\right	*	*2\right	*	*	*	*2\right
!LO:TX:b:t=Agnus Dei	!	!LO:TX:a:t=P:problem=znaki przy kluczu ee-/b-	!	!	!	!	!	!	!	!	!	!	!	!
!LO:TX:a:t=Tutti	!	!LO:TX:a:t=Andante	!	!	!	!	!	!	!	!	!	!	!	!LO:TX:b:t=Agnus
!LO:TX:a:t=P:problem=znaki przy kluczu B-/E-/BB-	!	!LO:TX:b:t=Agnus	!	!LO:TX:b:t=Agnus Dei	!	!	!	!	!	!	!	!	!LO:TX:b:t=Agnus Dei	!LO:TX:a:t=Andante
2B-\	.	2dd\	.	2ff\	.	2B-\	A-	2B-\	A-	2f\	A-	2.ryy	2d/	2b-\
4F\	.	4cc\	.	4aa\	.	4F\	-gnus	4c\	-gnus	4a\	-gnus	.	4f/	4cc\
=64	=64	=64	=64	=64	=64	=64	=64	=64	=64	=64	=64	=64	=64	=64
4D/	6	4dd\	.	4ff\	.	4D/	De-	4d\	De-	4f\	De-	2.ryy	4b-/	4dd\
8BB-/L	.	8dd\L	.	8ff\L	.	(8BB-/L	-i	8d\L	-i	(8f\L	-i	.	8b-/L	8dd\L
8C/	.	8cc\J	.	8ee-\	.	8C/J)	.	8c\J	.	8e-\J)	.	.	8f/	8cc\
8D/	6	8b-\L	.	8ff\	.	(8D/L	qui	8B-\L	qui	(8f\L	qui	.	8d/	8b-\
8E-/J	.	8ee-\J	.	8gg\J	.	8E-/J)	.	8e-\J	.	8g\J)	.	.	8f/J	8cc\J
!	!	!	!	!LO:LB:g=original	!	!	!	!	!	!	!	!	!	!
=65	=65	=65	=65	=65	=65	=65	=65	=65	=65	=65	=65	=65	=65	=65
4F\	.	4a/	.	4cc\	.	4F\	tol-	4c\	tol-	4f\	tol-	2.ryy	4f/	4cc\
4F\	.	4a/	.	4f/	.	4F\	-lis	4c\	-lis	4f\	-lis	.	4f/	4cc\
4D/	6	4dd\	.	4ff\	.	4D/	pec-	4d\	pec-	4b-\	pec-	.	4dd\	4ff\
!LO:LB:g=original	!	!	!	!	!	!LO:LB:g=original	!	!	!	!	!	!	!	!
=66	=66	=66	=66	=66	=66	=66	=66	=66	=66	=66	=66	=66	=66	=66
8E-\L	.	8b-\L	.	8gg\L	.	8E-\L	-ca-	8B-\L	-ca-	(8g\L	-ca-	2.ryy	8b-\L	8ee-\L
8F\	6	8a\	.	8ff\	.	8F\	.	8A\	.	8a\J)	.	.	8f\	8dd\
8G\	.	8b-\	.	8ee-\	.	8G\	.	8B-\	.	(8g\L	-ta	.	8b-\	8ee-\
8A\J	.	8cc\	.	8ff\	.	8A\J	.	8c\J	.	8f\J)	.	.	8cc\J	8ff\J
4B-\	.	8b-\	.	8dd\	.	4B-\	-ta	4B-\	.	4f\	mun-	.	4b-\	4dd\
.	.	8dd\J	.	8ff\J	.	.	.	.	.	.	.	.	.	.
!	!	!	!	!	!	!	!	!	!	!	!	!	!	!LO:LB:g=original
=67	=67	=67	=67	=67	=67	=67	=67	=67	=67	=67	=67	=67	=67	=67
4En\	6 5	4cc\	.	4gg\	.	4En\	mun-	4B-,<\	-ta	4g\	.	2.ryy	8B-/L	4cc\
.	.	.	.	.	.	.	.	.	.	.	.	.	8B-/J	.
4F\	.	2cc\	.	2ff\	.	(4F\	.	(4B-\	mun-	2f\	.	.	4f/	4.cc\
4FF/	4	.	.	.	.	4FF/)	.	4c\)	.	.	.	.	8f/L	.
.	3	.	.	.	.	.	.	.	.	.	.	.	8f/J	8b-\
=68	=68	=68	=68	=68	=68	=68	=68	=68	=68	=68	=68	=68	=68	=68
!LO:TX:a:t=P:problem=mixed beam	!	!LO:TX:a:t=P:problem=mixed beam	!	!LO:TX:a:t=P:problem=mixed beam	!	!	!	!	!	!	!	!	!	!
8BB-/L	.	16dd\LL	.	16ff\LL	.	8BB-/	-di	8d,<\	-di	8f\	-di	2.ryy	8d/L	8b-/L
.	.	16f/	.	16f/	.	.	.	.	.	.	.	.	.	.
8B-\	.	16f/	.	16f/	.	(8B-\L	mi-	8B-\L	mi-	8f\L	mi-	.	16f/L	16f/L
.	.	16f/JJ	.	16f/JJ	.	.	.	.	.	.	.	.	16f/JJ	16f/JJ
8A\	6	16f/LL	.	16f/LL	.	8A\J)	.	8c\J	.	8a\J	.	.	8f/L	8f/L
.	.	16f/	.	16f/	.	.	.	.	.	.	.	.	.	.
8B-\	.	16f/	.	16f/	.	8B-\	-se-	8d\	-se-	8f\	-se-	.	8f/	8f/
.	.	16f/JJ	.	16f/JJ	.	.	.	.	.	.	.	.	.	.
8F\	.	16f/LL	.	16f/LL	.	(8F\L	-re-	8c\L	-re-	16a\LL	-re-	.	8f/	8f/
.	.	16f/	.	16f/	.	.	.	.	.	16g\	.	.	.	.
8B-\J	.	16f/	.	16f/	.	8B-\J)	.	8d\J	.	16f\	.	.	8f/J	8f/J
.	.	16f/JJ	.	16f/JJ	.	.	.	.	.	16g\JJ	.	.	.	.
!	!	!	!	!	!	!	!	!LO:LB:g=original	!	!LO:LB:g=original	!	!	!	!
=69	=69	=69	=69	=69	=69	=69	=69	=69	=69	=69	=69	=69	=69	=69
8A\L	6	16f/LL	.	16f/LL	.	8A\	-re	8c\	-re	8a\	-re	2.ryy	8f/L	8f/L
.	.	16f/	.	16f/	.	.	.	.	.	.	.	.	.	.
8B-\	.	16f/	.	16f/	.	8B-\L	mi-	(8B-\L	mi-	(8f\L	mi-	.	16f/L	16f/L
.	.	16f/JJ	.	16f/JJ	.	.	.	.	.	.	.	.	16f/JJ	16f/JJ
8A\	6	16f/LL	.	16f/LL	.	8A\J	.	8c\J)	.	8a\J)	.	.	16f/LL	8f/L
.	.	16f/	.	16f/	.	.	.	.	.	.	.	.	16f/	.
8B-\	.	16f/	.	16f/	.	8B-\	-se-	8d\	-se-	8f\	-se-	.	16f/	8f/
.	.	16f/JJ	.	16f/JJ	.	.	.	.	.	.	.	.	16f/JJ	.
!	!	!LO:LB:g=original	!	!	!	!	!	!	!	!	!	!	!	!
8F\	.	16f/LL	.	16f/LL	.	8F\L	-re-	(8c\L	-re-	16a\LL	-re-	.	8f/L	8f/
.	.	16f/	.	16f/	.	.	.	.	.	16g\	.	.	.	.
8B-\J	.	16f/	.	16f/	.	8B-\J	.	8d\J)	.	16f\	.	.	16f/L	8f/J
.	.	16f/JJ	.	16f/JJ	.	.	.	.	.	16g\JJ	.	.	16f/JJ	.
!	!	!	!	!	!	!	!	!	!	!	!	!	!LO:LB:g=original	!
=70	=70	=70	=70	=70	=70	=70	=70	=70	=70	=70	=70	=70	=70	=70
8A\L	6	16f/LL	.	16f/LL	.	8A\	-re	8c\	-re	8a\	-re	2.ryy	8f/L	8f/L
.	.	16b-/	.	16b-/	.	.	.	.	.	.	.	.	.	.
*	*	*	*	*	*	*	*ij	*	*	*	*	*	*	*
8E-X\	.	16b-/	.	16b-/	.	(8E-\L	mi-	8e-\L	mi-	(8g\L	mi-	.	16B-/L	8B-/J
.	.	16b-/JJ	.	16b-/JJ	.	.	.	.	.	.	.	.	16B-/JJ	.
8D\	6	16b-/LL	.	16b-/LL	.	8D\J)	.	8f\J	.	8f\J)	.	.	8B-/L	16B-/LL
.	.	16b-/	.	16b-/	.	.	.	.	.	.	.	.	.	16B-/
8E-\	.	16b-/	.	16b-/	.	8E-\	-se-	8B-\	-se-	8g\	-se-	.	8B-/J	16B-/
.	.	16b-/JJ	.	16b-/JJ	.	.	.	.	.	.	.	.	.	16B-/JJ
8BB-\	.	16b-/LL	.	16b-/LL	.	8BB-/L	-re-	4B-\	-re-	8f\L	-re-	.	8B-/L	8B-/L
.	.	16b-/	.	16b-/	.	.	.	.	.	.	.	.	.	.
8E-\J	.	16b-/	.	16b-/	.	8E-/J	.	.	.	8g\J	.	.	16B-/L	8B-/J
.	.	16b-/JJ	.	16b-/JJ	.	.	.	.	.	.	.	.	16B-/JJ	.
!	!	!	!	!LO:LB:g=original	!	!	!	!	!	!	!	!	!	!
=71	=71	=71	=71	=71	=71	=71	=71	=71	=71	=71	=71	=71	=71	=71
8D\L	6	16b-/LL	.	16b-/LL	.	8D/	-re	8B-\	-re	8f\	-re	2.ryy	8B-/L	8B-/L
.	.	16b-/	.	16b-/	.	.	.	.	.	.	.	.	.	.
*	*	*	*	*	*	*	*	*	*	*	*ij	*	*	*
8E-\	.	16b-/	.	16b-/	.	8E-\L	mi-	(8e-\L	.	8g\L	mi-	.	16B-/L	16B-/L
.	.	16b-/JJ	.	16b-/JJ	.	.	.	.	.	.	.	.	16B-/JJ	16B-/JJ
8D\	6	16b-/LL	.	16b-/LL	.	8D\J	.	8f\J)	.	8f\J	.	.	8B-/L	8B-/L
.	.	16b-/	.	16b-/	.	.	.	.	.	.	.	.	.	.
8E-\	.	16b-/	.	16b-/	.	8E-\	-se-	8B-\	.	8g\	-se-	.	8B-/	8B-/
.	.	16b-/JJ	.	16b-/JJ	.	.	.	.	.	.	.	.	.	.
8BB-\	.	16b-/LL	.	16b-/LL	.	8BB-/L	-re-	4B-\	no-	8f\L	-re-	.	8B-/	8B-/
.	.	16b-/	.	16b-/	.	.	.	.	.	.	.	.	.	.
8E-\J	.	16b-/	.	16b-/	.	8E-/J	.	.	.	8g\J	.	.	8B-/J	8B-/J
.	.	16b-/JJ	.	16b-/JJ	.	.	.	.	.	.	.	.	.	.
=72	=72	=72	=72	=72	=72	=72	=72	=72	=72	=72	=72	=72	=72	=72
!	!	!	!	!LO:SIC:o=8cc\L:v	!	!	!	!	!	!	!	!	!	!
4D/	.	8b-\L	.	8b-	.	4D/	-re	4d,<\	-bis	4f\	-re	2.ryy	4B-/	4B-/
*	*	*	*	*	*	*	*Xij	*	*	*	*Xij	*	*	*
.	.	8dd\	.	8ff\	.	.	.	.	.	.	.	.	.	.
4BB-/	.	8dd\	.	8gg\	.	4B-\	mi-	4d\	mi-	4g\	mi-	.	4r	4r
.	.	8dd\	.	8gg\	.	.	.	.	.	.	.	.	.	.
!	!	!	!	!	!	!	!	!LO:SIC:v:o=4B-\	!	!	!	!	!	!
4AA/	6	8cc\	.	8ff#X\	.	4A\	-se-	4c	-se-	4f#X\	-se-	.	4r	4r
.	.	8cc\J	.	8gg\J	.	.	.	.	.	.	.	.	.	.
!	!	!	!	!	!	!LO:LB:g=original	!	!	!	!	!	!	!	!
=73	=73	=73	=73	=73	=73	=73	=73	=73	=73	=73	=73	=73	=73	=73
!	!	!	!	!	!	!	!	!	!	!	!	!	!LO:N:vis=0	!LO:N:vis=0
4GG/	-	4dd\	.	4gg\	.	(4.G\	-re-	(4.B-\	-re-	(4.g\	-re-	2.ryy	1.r	1.r
8GG/L	.	8dd\L	.	8gg\L	.	.	.	.	.	.	.	.	.	.
8AA/J	6\	8cc\J	.	8ff#X\J	.	8A\)	.	8c\)	.	8f#X\)	.	.	.	.
4BB-/	6	4dd\	.	4gg\	.	4B-\	-re	4d\	-re	4g\	-re	.	.	.
!LO:LB:g=original	!	!	!	!	!	!	!	!	!	!	!	!	!	!
=74	=74	=74	=74	=74	=74	=74	=74	=74	=74	=74	=74	=74	=74	=74
4C/	6 5	8ee-\L	.	8aa\L	.	(4c\	no-	4e-\	no-	(8a\L	no-	2.ryy	.	.
.	.	8ee-\	.	8gg\	.	.	.	.	.	8g\J)	.	.	.	.
4D/	.	8dd\	.	8gg\	.	4d\)	.	2d\	.	4g\	.	.	.	.
.	.	8cc\	.	8gg\	.	.	.	.	.	.	.	.	.	.
4DD/	5 4	8b-\	.	8ff#X\	.	4D/	-bis	.	.	4f#X\	.	.	.	.
.	x #	8a\J	.	8ff#\J	.	.	.	.	.	.	.	.	.	.
!	!	!LO:LB:g=original	!	!	!	!	!	!	!	!	!	!	!	!
=75	=75	=75	=75	=75	=75	=75	=75	=75	=75	=75	=75	=75	=75	=75
!LO:TX:a:t=P:problem=mixed beam	!	!	!	!	!	!	!	!	!	!	!	!	!	!
8GG/L	-	16b-\LL	.	16gg\LL	.	8G,<\	.	8d\	-bis	8g\	-bis	2.ryy	8r	8r
.	.	16dd\	.	16dd\	.	.	.	.	.	.	.	.	.	.
8G\	.	16dd\	.	16dd\	.	8G\L	mi-	(8B-\L	mi-	8g\L	mi-	.	16d/LL	16d/LL
.	.	16dd\JJ	.	16dd\JJ	.	.	.	.	.	.	.	.	16d/JJ	16d/JJ
8F#X\	6	16dd\LL	.	16dd\LL	.	8F#X\J	.	8A\J)	.	8a\J	.	.	8d/L	8d/L
.	.	16dd\	.	16dd\	.	.	.	.	.	.	.	.	.	.
8G\	.	16dd\	.	16dd\	.	8G\	-se-	8B-\	-se-	8g\	-se-	.	8d/J	8d/J
.	.	16dd\JJ	.	16dd\JJ	.	.	.	.	.	.	.	.	.	.
8D\	#	16dd\LL	.	16dd\LL	.	8D\L	-re-	(8A\L	-re-	8f#X\L	-re-	.	16d/LL	16d/LL
.	.	16dd\	.	16dd\	.	.	.	.	.	.	.	.	16d/	16d/
8G\J	-	16dd\	.	16dd\	.	8G\J	.	8B-\J)	.	8g\J	.	.	16d/	16d/
.	.	16dd\JJ	.	16dd\JJ	.	.	.	.	.	.	.	.	16d/JJ	16d/JJ
!	!	!	!	!	!	!	!	!	!	!LO:LB:g=original	!	!	!	!LO:LB:g=original
=76	=76	=76	=76	=76	=76	=76	=76	=76	=76	=76	=76	=76	=76	=76
!	!	!LO:TX:a:t=P:problem=mixed beam	!	!LO:TX:a:t=P:problem=mixed beam	!	!	!	!	!	!	!	!	!	!
8F#X\L	6	16dd\LL	.	16dd\LL	.	8F#X\	-re	8A/	-re	8a\	-re	2.ryy	16d/LL	8d/L
.	.	16d/	.	16d/	.	.	.	.	.	.	.	.	16d/	.
!	!	!	!	!	!	!	!	!LO:LB:g=original	!	!	!	!	!	!
8G\	-	16d/	.	16d/	.	(8G\L	mi-	8B-\L	mi-	(8g\	mi-	.	16d/	16d/L
.	.	16d/JJ	.	16d/JJ	.	.	.	.	.	.	.	.	16d/JJ	16d/JJ
!	!	!	!	!	!	!LO:TX:a:t=P:problem=# above	!	!	!	!	!	!	!	!
8F#X\	6	16d/LL	.	16d/LL	.	8F#X\J)	.	8A\J	.	8a\)	.	.	8d/L	16d/LL
.	.	16d/	.	16d/	.	.	.	.	.	.	.	.	.	16d/
8G\	-	16d/	.	16d/	.	8G\	-se-	8B-\	-se-	8g\	-se-	.	16d/L	16d/
.	.	16d/JJ	.	16d/JJ	.	.	.	.	.	.	.	.	16d/JJ	16d/JJ
!	!	!	!	!LO:LB:g=original	!	!	!	!	!	!	!	!	!	!
8D\	#	16d/LL	.	16d/LL	.	8D\L	-re-	(8A\L	-re-	8f#X\L	-re-	.	16d/LL	16d/LL
.	.	16d/	.	16d/	.	.	.	.	.	.	.	.	16d/	16d/
8G\J	-	16d/	.	16d/	.	8G\J	.	8B-\J)	.	8g\J	.	.	16d/	16d/
.	.	16d/JJ	.	16d/JJ	.	.	.	.	.	.	.	.	16d/JJ	16d/JJ
=77	=77	=77	=77	=77	=77	=77	=77	=77	=77	=77	=77	=77	=77	=77
!	!	!	!	!LO:TX:a:t=P:problem=mixed beam	!	!	!	!	!	!	!	!	!	!
4F#X\	6	16d/LL	.	16d/LL	.	4F#X\	-re	4A/	-re	4a\	-re	2.ryy	4d/	4d/
.	.	16a/	.	16dd\	.	.	.	.	.	.	.	.	.	.
.	.	16a/	.	16dd\	.	.	.	.	.	.	.	.	.	.
.	.	16a/JJ	.	16dd\JJ	.	.	.	.	.	.	.	.	.	.
4BB-/	.	16b-\LL	.	16dd\LL	.	4B-\	mi-	4B-\	mi-	4fn\	mi-	.	4b-\	4dd\
.	.	16dd\	.	16ff\	.	.	.	.	.	.	.	.	.	.
.	.	16dd\	.	16ff\	.	.	.	.	.	.	.	.	.	.
.	.	16dd\JJ	.	16ff\JJ	.	.	.	.	.	.	.	.	.	.
4Fn\	.	16cc\LL	.	16ff\LL	.	4Fn\	-se-	4A/	-se-	4a\	-se-	.	4cc\	4ff\
.	.	16ff\	.	16aa\	.	.	.	.	.	.	.	.	.	.
.	.	16ff\	.	16aa\	.	.	.	.	.	.	.	.	.	.
.	.	16ff\JJ	.	16aa\JJ	.	.	.	.	.	.	.	.	.	.
=78	=78	=78	=78	=78	=78	=78	=78	=78	=78	=78	=78	=78	=78	=78
4G\	-	8dd\L	.	8gg\L	.	4G\	-re-	(4B-\	-re-	4g\	-re-	2.ryy	4b-\	4dd\
.	.	8dd\	.	8gg\	.	.	.	.	.	.	.	.	.	.
8F\L	.	8ff\	.	8aa\	.	(8F\L	-re	4A\)	.	8a\L	.	.	8cc\L	8ff\L
8E-\J	.	8cc\	.	8gg\	.	8E-\J)	.	.	.	8g\J	.	.	8f\	8cc\J
4D\	6	8dd\	.	8ff\	.	4D/	.	4B-\	-re	4f\	-re	.	8b-\	8dd\L
.	.	8ff\J	.	8bb-\J	.	.	.	.	.	.	.	.	8dd\J	8ff\J
!	!	!	!	!	!	!	!	!	!	!	!	!	!LO:LB:g=original	!
=79	=79	=79	=79	=79	=79	=79	=79	=79	=79	=79	=79	=79	=79	=79
4E-\	6 5	8gg\L	.	8bb-\L	.	4E-\	no-	4B-\	mi-	(4g\	no-	2.ryy	8ee-\L	8gg\L
.	.	8gg\	.	8bb-\	.	.	.	.	.	.	.	.	8ee-\	8gg\
4F\	.	8ff\	.	8bb-\	.	4F\	.	(4B-\	-se-	2f\)	.	.	8dd\	8ff\
.	.	8ff\	.	8aa\	.	.	.	.	.	.	.	.	8cc\	8ee-\
4FF/	4	8cc\	.	8aa\	.	4FF/	.	4c\)	.	.	.	.	8b-\	8dd\
.	3	8cc\J	.	8aa\J	.	.	.	.	.	.	.	.	8f\J	8cc\J
!	!	!LO:LB:g=original	!	!	!	!	!	!	!	!	!	!	!	!
=80	=80	=80	=80	=80	=80	=80	=80	=80	=80	=80	=80	=80	=80	=80
!	!	!	!	!	!	!	!	!	!	!	!	!	!	!LO:TX:a:t=P:problem=mixed beam
4BB-/	.	8dd\L	.	8bb-\L	.	4BB-/	-bis	4d\	-re-	4f\	-bis	2.ryy	8d/L	8b-\L
.	.	8dd\	.	8ff\	.	.	.	.	.	.	.	.	8B-/J	8B-/J
8E-\L	.	8ee-\	.	8gg\	.	8E-\	mi-	8e-\	-re	8g\	mi-	.	8B-/L	8B-/L
8E-\	.	8ee-\	.	8gg\	.	8E-\	-se-	8e-\	mi-	8g\	-se-	.	16B-/L	16B-/L
.	.	.	.	.	.	.	.	.	.	.	.	.	16B-/JJ	16B-/JJ
!	!	!	!	!	!	!LO:LB:g=original	!	!	!	!	!	!	!	!
8D\	.	8b-\	.	8ff\	.	8D/	-re-	8B-\	-se-	8f\	-re-	.	16B-/LL	16B-/LL
.	.	.	.	.	.	.	.	.	.	.	.	.	16B-/	16B-/
8D\J	.	8b-\J	.	8ff\J	.	8D/	-re	8B-\	-rere	8f\	-re	.	16B-/	16B-/
.	.	.	.	.	.	.	.	.	.	.	.	.	16B-/JJ	16B-/JJ
!LO:LB:g=original	!	!	!	!	!	!	!	!	!	!	!	!	!	!
=81	=81	=81	=81	=81	=81	=81	=81	=81	=81	=81	=81	=81	=81	=81
8E-\L	.	8ee-\L	.	8gg\L	.	8E-\L	mi-	4.e-\	mi-	(4.g\	no-	2.ryy	8B-/L	8B-/L
8F\	.	8dd\	.	8ff\	.	8F\	.	.	.	.	.	.	16B-/L	16B-/L
.	.	.	.	.	.	.	.	.	.	.	.	.	16B-/JJ	16B-/JJ
8G\	.	8b-\	.	8ee-\	.	8G\J	.	.	.	.	.	.	8B-/L	8dd\L
8A\J	.	8cc\	.	8ff\	.	8A\	-se-	8c\	-se-	8f\)	.	.	8f/	8cc\J
4B-\	.	8dd\	.	8ff\	.	4B-\	-re-	4B-\	-re-	4f\	-bis	.	8b-/	8b-\L
.	.	8dd\J	.	8ff\J	.	.	.	.	.	.	.	.	8dd/J	8ff\J
=82	=82	=82	=82	=82	=82	=82	=82	=82	=82	=82	=82	=82	=82	=82
4En\	6 5	8een\L	.	8gg\L	.	4En\	-re	4B-\	-re	4g\	.	2.ryy	8cc\L	8gg\L
.	.	8cc\	.	8gg\	.	.	.	.	.	.	.	.	8b-\J	8cc\J
!	!	!	!	!	!	!LO:N:vis=8	!	!	!	!	!	!	!	!
!	!	!	!	!	!	!LO:TX:a:t=P:problem=mixed beam	!	!	!	!	!	!	!	!
4F\	.	8cc\	.	8ff\	.	(>4F\L	no-	4B-\	.	(4c/	no-	.	8f/L	4.ccT\
.	.	8cc\	.	8ff\	.	.	.	.	.	.	.	.	16f/L	.
.	.	.	.	.	.	.	.	.	.	.	.	.	16f/JJ	.
!	!	!	!	!	!	!LO:N:vis=8	!	!	!	!	!	!	!	!
4FF/	4	8cc\	.	8ff\	.	4FF/J)	.	4A/	no-	4f\)	.	.	16f/LL	.
.	.	.	.	.	.	.	.	.	.	.	.	.	16f/	.
.	3	8cc\J	.	8ff\J	.	.	.	.	.	.	.	.	16f/	8b-\
.	.	.	.	.	.	.	.	.	.	.	.	.	16f/JJ	.
=83	=83	=83	=83	=83	=83	=83	=83	=83	=83	=83	=83	=83	=83	=83
2.BB-/	.	2.dd\	.	2.ff\	.	2.BB-/	-bis	2.B-\	-bis.	2.f\	-bis	2.ryy	2.d/	2.b-\
==;;	==;;	==;;	==	==;;	==	==;;	==	==;;	==	==;;	==	==	==;;	==;;
*-	*-	*-	*-	*-	*-	*-	*-	*-	*-	*-	*-	*-	*-	*-
!!!system-decoration: [g1][g2][g3]
!!!RDF**kern: > = above
!!!RDF**kern: < = below
!!!RDF**dynam: p = "piano"
!!!RDF**dynam: f = "forte"
!!!ENC: Marta Lawrence
!!!END: 2020-11-05
!!!ENC: Andrzej Borzym
!!!END: 2020-05-05
